Newaita-dark/apps/48/google-play-music-desktop-player.svg

<svg height="48" viewBox="0 0 48 48" width="48" xmlns="http://www.w3.org/2000/svg" xmlns:xlink="http://www.w3.org/1999/xlink"><linearGradient id="a"><stop offset="0" stop-opacity=".313726"/><stop offset=".222222" stop-opacity=".27451"/><stop offset="1" stop-opacity="0"/></linearGradient><radialGradient id="b" cx="450.908936" cy="189.579361" gradientTransform="matrix(.00000026 -.117199 -.210958 -.00000015 66.784728 95.392994)" gradientUnits="userSpaceOnUse" r="21.166656" xlink:href="#a"/><radialGradient id="c" cx="450.908936" cy="189.579361" gradientTransform="matrix(-.00000026 .117199 .210958 .00000015 -19.155178 -11.291223)" gradientUnits="userSpaceOnUse" r="21.166656" xlink:href="#a"/><radialGradient id="d" cx="450.908936" cy="189.579361" gradientTransform="matrix(-.00000026 -.117199 .210958 -.00000015 -19.155178 95.392994)" gradientUnits="userSpaceOnUse" r="21.166656" xlink:href="#a"/><radialGradient id="e" cx="450.908936" cy="189.579361" gradientTransform="matrix(.00000026 .117199 -.210958 .00000015 66.784725 -11.291224)" gradientUnits="userSpaceOnUse" r="21.166656" xlink:href="#a"/><linearGradient id="f" gradientTransform="matrix(.0200401 0 0 .093759 18.698079 20.158175)" gradientUnits="userSpaceOnUse" x1="255.323059" x2="255.323044" y1="233.5" y2="254.666656"><stop offset="0" stop-opacity=".27451"/><stop offset="1" stop-opacity="0"/></linearGradient><linearGradient id="g" gradientUnits="userSpaceOnUse" x1="254" x2="254" y1="-168.666672" y2="233.5"><stop offset="0" stop-color="#ff8a65"/><stop offset="1" stop-color="#ff7043"/></linearGradient><linearGradient id="h" gradientUnits="userSpaceOnUse" x1="23.8147648" x2="23.8147648" y1="8.31329820523" y2="38.0817557"><stop offset="0" stop-color="#ffd54f"/><stop offset="1" stop-color="#ffca28"/></linearGradient><linearGradient id="i" gradientUnits="userSpaceOnUse" x1="242.093745" x2="242.093745" y1="127.238003" y2="-52.678669"><stop offset="0" stop-color="#e0e0e0"/><stop offset="1" stop-color="#fafafa"/></linearGradient><path d="m27.289062 42.050781h3.96875v-1.984375h-3.96875zm0 0" fill="url(#b)"/><path d="m20.339844 42.050781h-3.96875v1.984375h3.96875zm0 0" fill="url(#c)"/><path d="m20.339844 42.050781h-3.96875v-1.984375h3.96875zm0 0" fill="url(#d)"/><path d="m27.289062 42.050781h3.96875v1.984375h-3.96875zm0 0" fill="url(#e)"/><path d="m20.339844 41.554688h6.949218v2.480468h-6.949218zm0 0" fill="url(#f)"/><path d="m254.017409-168.671091c111.031064 0 201.064133 90.033069 201.064133 201.105795 0 111.031064-90.033069 201.064133-201.064133 201.064133-111.072726 0-201.105795-90.033069-201.105795-201.064133 0-111.072726 90.033069-201.105795 201.105795-201.105795zm0 0" fill="url(#g)" stroke="#333" stroke-linecap="round" stroke-width="3" transform="matrix(.093759 0 0 .093759 0 20.158175)"/><path d="m23.816406 42.050781c-10.445312 0-18.855468-8.410156-18.855468-18.851562 0-.0625 0-.125 0-.1875.101562 10.359375 8.472656 18.667969 18.855468 18.667969 10.382813 0 18.753906-8.308594 18.851563-18.667969v.1875c0 10.441406-8.410157 18.851562-18.851563 18.851562zm0 0" fill-opacity=".196078"/><path d="m23.816406 4.34375c-10.445312 0-18.855468 8.410156-18.855468 18.855469v.183593c.101562-10.359374 8.472656-18.667968 18.855468-18.667968 10.382813 0 18.753906 8.308594 18.851563 18.667968 0-.0625 0-.125 0-.183593 0-10.445313-8.410157-18.855469-18.851563-18.855469zm0 0" fill="#fff" fill-opacity=".392157"/><path d="m23.816406 4.203125c-10.523437 0-18.996094 8.472656-18.996094 18.996094 0 10.519531 8.472657 18.992187 18.996094 18.992187 10.519532 0 18.992188-8.472656 18.992188-18.992187 0-10.523438-8.472656-18.996094-18.992188-18.996094zm0 .28125c10.367188 0 18.710938 8.34375 18.710938 18.714844 0 10.367187-8.34375 18.710937-18.710938 18.710937-10.371094 0-18.714844-8.34375-18.714844-18.710937 0-10.371094 8.34375-18.714844 18.714844-18.714844zm0 0" fill="#212121"/><path d="m23.816406 8.3125c8.21875 0 14.882813 6.664062 14.882813 14.886719 0 8.21875-6.664063 14.882812-14.882813 14.882812-8.222656 0-14.886718-6.664062-14.886718-14.882812 0-8.222657 6.664062-14.886719 14.886718-14.886719zm0 0" fill="url(#h)"/><path d="m210.354912-53.098794c-11.748878 0-21.164645 9.415767-21.164645 21.164645v137.986823c0 11.707216 9.415767 21.164646 21.164645 21.164646 10.582323 0 96.990738-57.952799 145.52777-87.283332 7.91591-5.291161 7.91591-10.582322 0-15.873484-48.537032-25.747541-129.654286-76.742671-145.52777-77.159298zm0 0" fill="url(#i)" stroke="#ccc" stroke-linecap="round" stroke-width="3" transform="matrix(.093759 0 0 .093759 0 20.158175)"/><path d="m19.722656 15.179688c-1.101562 0-1.984375.882812-1.984375 1.984374v.410157c0-1.097657.882813-1.984375 1.984375-1.984375 1.488282.042968 9.09375 4.824218 13.644532 7.234375.265624.179687.4375.359375.511718.539062.132813-.316406-.039062-.632812-.511718-.949219-4.550782-2.414062-12.15625-7.195312-13.644532-7.234374zm0 0" fill="#fff" fill-opacity=".996774"/><path d="m19.722656 15.039062c-1.175781 0-2.125.949219-2.125 2.125v12.9375c0 1.171876.949219 2.125 2.125 2.125.1875 0 .414063-.097656.742188-.253906.332031-.15625.75-.378906 1.238281-.65625.972656-.554687 2.222656-1.320312 3.582031-2.171875 2.71875-1.703125 5.882813-3.75 8.152344-5.121093l.003906-.003907h.003906c.386719-.261719.617188-.542969.617188-.863281 0-.316406-.230469-.601562-.617188-.859375l-.015624-.007813c-2.265626-1.203124-5.304688-3-7.964844-4.503906-1.328125-.753906-2.5625-1.429687-3.5625-1.925781-.496094-.246094-.9375-.445313-1.304688-.589844-.363281-.140625-.648437-.226562-.871094-.230469zm-.003906.28125c.152344.003907.425781.078126.777344.214844.355468.136719.789062.332032 1.285156.578125.988281.488281 2.21875 1.164063 3.546875 1.914063 2.648437 1.5 5.683594 3.296875 7.960937 4.503906.351563.234375.492188.449219.492188.625 0 .179688-.140625.390625-.492188.628906-2.277343 1.378906-5.4375 3.421875-8.152343 5.121094-1.359375.851562-2.605469 1.617188-3.574219 2.164062-.484375.277344-.898438.5-1.214844.648438-.320312.152344-.566406.226562-.625.226562-1.023437 0-1.84375-.820312-1.84375-1.84375v-12.9375c0-1.023437.816406-1.84375 1.839844-1.84375zm0 0" fill="#212121"/><path d="m23.816406 8.4375c-8.246094 0-14.886718 6.636719-14.886718 14.882812 0 .121094.003906.238282.003906.359376.207031-8.066407 6.765625-14.5 14.882812-14.5 8.113282 0 14.675782 6.433593 14.878906 14.5 0-.121094.003907-.238282.003907-.359376 0-8.246093-6.636719-14.882812-14.882813-14.882812zm0 0" fill-opacity=".235294"/><path d="m8.9375 23.695312c-.003906.164063-.007812.328126-.007812.496094 0 8.246094 6.640624 14.882813 14.886718 14.882813s14.882813-6.636719 14.882813-14.882813c0-.167968-.003907-.332031-.007813-.496094-.261718 8.011719-6.796875 14.386719-14.875 14.386719-8.082031 0-14.617187-6.375-14.878906-14.386719zm0 0" fill="#fff" fill-opacity=".392157"/><path d="m254.017409-126.3418c87.658296 0 158.734842 71.076546 158.734842 158.776504 0 87.658296-71.076546 158.734842-158.734842 158.734842-87.699958 0-158.776504-71.076546-158.776504-158.734842 0-87.699958 71.076546-158.776504 158.776504-158.776504zm0 0" fill="none" stroke="#333" stroke-linecap="round" stroke-width="3" transform="matrix(.093759 0 0 .093759 0 20.158175)"/><path d="m33.65625 23.671875c-.082031.078125-.175781.152344-.289062.230469-4.550782 2.75-12.652344 8.183594-13.644532 8.183594-1.101562 0-1.984375-.886719-1.984375-1.984376v1.03125c0 1.097657.882813 1.984376 1.984375 1.984376.992188.003906 9.09375-5.433594 13.644532-8.183594.628906-.417969.726562-.839844.289062-1.261719zm0 0" fill-opacity=".235294"/></svg>

<?xml version="1.0" encoding="UTF-8"?>
<svg xmlns="http://www.w3.org/2000/svg" xmlns:xlink="http://www.w3.org/1999/xlink" width="48px" height="48px" viewBox="0 0 48 48" version="1.1">
<defs>
<radialGradient id="radial0" gradientUnits="userSpaceOnUse" cx="450.908936" cy="189.579361" fx="450.908936" fy="189.579361" r="21.166656" gradientTransform="matrix(0.000000261256,-0.117199,-0.210958,-0.000000152308,66.784728,95.392994)">
<stop offset="0" style="stop-color:rgb(0%,0%,0%);stop-opacity:0.313726;"/>
<stop offset="0.222222" style="stop-color:rgb(0%,0%,0%);stop-opacity:0.27451;"/>
<stop offset="1" style="stop-color:rgb(0%,0%,0%);stop-opacity:0;"/>
</radialGradient>
<radialGradient id="radial1" gradientUnits="userSpaceOnUse" cx="450.908936" cy="189.579361" fx="450.908936" fy="189.579361" r="21.166656" gradientTransform="matrix(-0.000000261256,0.117199,0.210958,0.000000152308,-19.155178,-11.291223)">
<stop offset="0" style="stop-color:rgb(0%,0%,0%);stop-opacity:0.313726;"/>
<stop offset="0.222222" style="stop-color:rgb(0%,0%,0%);stop-opacity:0.27451;"/>
<stop offset="1" style="stop-color:rgb(0%,0%,0%);stop-opacity:0;"/>
</radialGradient>
<radialGradient id="radial2" gradientUnits="userSpaceOnUse" cx="450.908936" cy="189.579361" fx="450.908936" fy="189.579361" r="21.166656" gradientTransform="matrix(-0.000000261256,-0.117199,0.210958,-0.000000152308,-19.155178,95.392994)">
<stop offset="0" style="stop-color:rgb(0%,0%,0%);stop-opacity:0.313726;"/>
<stop offset="0.222222" style="stop-color:rgb(0%,0%,0%);stop-opacity:0.27451;"/>
<stop offset="1" style="stop-color:rgb(0%,0%,0%);stop-opacity:0;"/>
</radialGradient>
<radialGradient id="radial3" gradientUnits="userSpaceOnUse" cx="450.908936" cy="189.579361" fx="450.908936" fy="189.579361" r="21.166656" gradientTransform="matrix(0.000000261256,0.117199,-0.210958,0.000000152308,66.784725,-11.291224)">
<stop offset="0" style="stop-color:rgb(0%,0%,0%);stop-opacity:0.313726;"/>
<stop offset="0.222222" style="stop-color:rgb(0%,0%,0%);stop-opacity:0.27451;"/>
<stop offset="1" style="stop-color:rgb(0%,0%,0%);stop-opacity:0;"/>
</radialGradient>
<linearGradient id="linear0" gradientUnits="userSpaceOnUse" x1="255.323059" y1="233.5" x2="255.323044" y2="254.666656" gradientTransform="matrix(0.0200401,0,0,0.093759,18.698079,20.158175)">
<stop offset="0" style="stop-color:rgb(0%,0%,0%);stop-opacity:0.27451;"/>
<stop offset="1" style="stop-color:rgb(0%,0%,0%);stop-opacity:0;"/>
</linearGradient>
<linearGradient id="linear1" gradientUnits="userSpaceOnUse" x1="254" y1="-168.666672" x2="254" y2="233.5" gradientTransform="matrix(1,0,0,1,0,0)">
<stop offset="0" style="stop-color:rgb(100%,54.11765%,39.607844%);stop-opacity:1;"/>
<stop offset="1" style="stop-color:rgb(100%,43.921569%,26.274511%);stop-opacity:1;"/>
</linearGradient>
<linearGradient id="linear2" gradientUnits="userSpaceOnUse" x1="254" y1="-168.666672" x2="254" y2="233.5" gradientTransform="matrix(0.0740202,0,0,0.0740202,5.013634,20.798039)">
<stop offset="0" style="stop-color:rgb(100%,83.529413%,30.980393%);stop-opacity:1;"/>
<stop offset="1" style="stop-color:rgb(100%,79.215688%,15.686275%);stop-opacity:1;"/>
</linearGradient>
<linearGradient id="linear3" gradientUnits="userSpaceOnUse" x1="254" y1="85.333336" x2="254" y2="-94.583336" gradientTransform="matrix(1,0,0,1,-11.906255,41.904667)">
<stop offset="0" style="stop-color:rgb(87.843138%,87.843138%,87.843138%);stop-opacity:1;"/>
<stop offset="1" style="stop-color:rgb(98.039216%,98.039216%,98.039216%);stop-opacity:1;"/>
</linearGradient>
</defs>
<g id="surface1">
<path style=" stroke:none;fill-rule:nonzero;fill:url(#radial0);" d="M 27.289062 42.050781 L 31.257812 42.050781 L 31.257812 40.066406 L 27.289062 40.066406 Z M 27.289062 42.050781 "/>
<path style=" stroke:none;fill-rule:nonzero;fill:url(#radial1);" d="M 20.339844 42.050781 L 16.371094 42.050781 L 16.371094 44.035156 L 20.339844 44.035156 Z M 20.339844 42.050781 "/>
<path style=" stroke:none;fill-rule:nonzero;fill:url(#radial2);" d="M 20.339844 42.050781 L 16.371094 42.050781 L 16.371094 40.066406 L 20.339844 40.066406 Z M 20.339844 42.050781 "/>
<path style=" stroke:none;fill-rule:nonzero;fill:url(#radial3);" d="M 27.289062 42.050781 L 31.257812 42.050781 L 31.257812 44.035156 L 27.289062 44.035156 Z M 27.289062 42.050781 "/>
<path style=" stroke:none;fill-rule:nonzero;fill:url(#linear0);" d="M 20.339844 41.554688 L 27.289062 41.554688 L 27.289062 44.035156 L 20.339844 44.035156 Z M 20.339844 41.554688 "/>
<path style="fill-rule:nonzero;fill:url(#linear1);stroke-width:3;stroke-linecap:round;stroke-linejoin:miter;stroke:rgb(20%,20%,20%);stroke-opacity:1;stroke-miterlimit:4;" d="M 254.017409 -168.671091 C 365.048473 -168.671091 455.081542 -78.638022 455.081542 32.434704 C 455.081542 143.465768 365.048473 233.498837 254.017409 233.498837 C 142.944683 233.498837 52.911614 143.465768 52.911614 32.434704 C 52.911614 -78.638022 142.944683 -168.671091 254.017409 -168.671091 Z M 254.017409 -168.671091 " transform="matrix(0.093759,0,0,0.093759,0,20.158175)"/>
<path style=" stroke:none;fill-rule:nonzero;fill:rgb(0%,0%,0%);fill-opacity:0.196078;" d="M 23.816406 42.050781 C 13.371094 42.050781 4.960938 33.640625 4.960938 23.199219 C 4.960938 23.136719 4.960938 23.074219 4.960938 23.011719 C 5.0625 33.371094 13.433594 41.679688 23.816406 41.679688 C 34.199219 41.679688 42.570312 33.371094 42.667969 23.011719 C 42.667969 23.074219 42.667969 23.136719 42.667969 23.199219 C 42.667969 33.640625 34.257812 42.050781 23.816406 42.050781 Z M 23.816406 42.050781 "/>
<path style=" stroke:none;fill-rule:nonzero;fill:rgb(100%,100%,100%);fill-opacity:0.392157;" d="M 23.816406 4.34375 C 13.371094 4.34375 4.960938 12.753906 4.960938 23.199219 C 4.960938 23.257812 4.960938 23.320312 4.960938 23.382812 C 5.0625 13.023438 13.433594 4.714844 23.816406 4.714844 C 34.199219 4.714844 42.570312 13.023438 42.667969 23.382812 C 42.667969 23.320312 42.667969 23.257812 42.667969 23.199219 C 42.667969 12.753906 34.257812 4.34375 23.816406 4.34375 Z M 23.816406 4.34375 "/>
<path style=" stroke:none;fill-rule:nonzero;fill:rgb(12.941177%,12.941177%,12.941177%);fill-opacity:1;" d="M 23.816406 4.203125 C 13.292969 4.203125 4.820312 12.675781 4.820312 23.199219 C 4.820312 33.71875 13.292969 42.191406 23.816406 42.191406 C 34.335938 42.191406 42.808594 33.71875 42.808594 23.199219 C 42.808594 12.675781 34.335938 4.203125 23.816406 4.203125 Z M 23.816406 4.484375 C 34.183594 4.484375 42.527344 12.828125 42.527344 23.199219 C 42.527344 33.566406 34.183594 41.910156 23.816406 41.910156 C 13.445312 41.910156 5.101562 33.566406 5.101562 23.199219 C 5.101562 12.828125 13.445312 4.484375 23.816406 4.484375 Z M 23.816406 4.484375 "/>
<path style=" stroke:none;fill-rule:nonzero;fill:url(#linear2);" d="M 23.816406 8.3125 C 32.035156 8.3125 38.699219 14.976562 38.699219 23.199219 C 38.699219 31.417969 32.035156 38.082031 23.816406 38.082031 C 15.59375 38.082031 8.929688 31.417969 8.929688 23.199219 C 8.929688 14.976562 15.59375 8.3125 23.816406 8.3125 Z M 23.816406 8.3125 "/>
<path style="fill-rule:nonzero;fill:url(#linear3);stroke-width:3;stroke-linecap:round;stroke-linejoin:miter;stroke:rgb(80.000001%,80.000001%,80.000001%);stroke-opacity:1;stroke-miterlimit:4;" d="M 210.354912 -53.098794 C 198.606034 -53.098794 189.190267 -43.683027 189.190267 -31.934149 L 189.190267 106.052674 C 189.190267 117.75989 198.606034 127.21732 210.354912 127.21732 C 220.937235 127.21732 307.34565 69.264521 355.882682 39.933988 C 363.798592 34.642827 363.798592 29.351666 355.882682 24.060504 C 307.34565 -1.687037 226.228396 -52.682167 210.354912 -53.098794 Z M 210.354912 -53.098794 " transform="matrix(0.093759,0,0,0.093759,0,20.158175)"/>
<path style=" stroke:none;fill-rule:nonzero;fill:rgb(100%,100%,100%);fill-opacity:0.996774;" d="M 19.722656 15.179688 C 18.621094 15.179688 17.738281 16.0625 17.738281 17.164062 L 17.738281 17.574219 C 17.738281 16.476562 18.621094 15.589844 19.722656 15.589844 C 21.210938 15.632812 28.816406 20.414062 33.367188 22.824219 C 33.632812 23.003906 33.804688 23.183594 33.878906 23.363281 C 34.011719 23.046875 33.839844 22.730469 33.367188 22.414062 C 28.816406 20 21.210938 15.21875 19.722656 15.179688 Z M 19.722656 15.179688 "/>
<path style=" stroke:none;fill-rule:nonzero;fill:rgb(12.941177%,12.941177%,12.941177%);fill-opacity:1;" d="M 19.722656 15.039062 C 18.546875 15.039062 17.597656 15.988281 17.597656 17.164062 L 17.597656 30.101562 C 17.597656 31.273438 18.546875 32.226562 19.722656 32.226562 C 19.910156 32.226562 20.136719 32.128906 20.464844 31.972656 C 20.796875 31.816406 21.214844 31.59375 21.703125 31.316406 C 22.675781 30.761719 23.925781 29.996094 25.285156 29.144531 C 28.003906 27.441406 31.167969 25.394531 33.4375 24.023438 L 33.441406 24.019531 L 33.445312 24.019531 C 33.832031 23.757812 34.0625 23.476562 34.0625 23.15625 C 34.0625 22.839844 33.832031 22.554688 33.445312 22.296875 L 33.429688 22.289062 C 31.164062 21.085938 28.125 19.289062 25.464844 17.785156 C 24.136719 17.03125 22.902344 16.355469 21.902344 15.859375 C 21.40625 15.613281 20.964844 15.414062 20.597656 15.269531 C 20.234375 15.128906 19.949219 15.042969 19.726562 15.039062 Z M 19.71875 15.320312 C 19.871094 15.324219 20.144531 15.398438 20.496094 15.535156 C 20.851562 15.671875 21.285156 15.867188 21.78125 16.113281 C 22.769531 16.601562 24 17.277344 25.328125 18.027344 C 27.976562 19.527344 31.011719 21.324219 33.289062 22.53125 C 33.640625 22.765625 33.78125 22.980469 33.78125 23.15625 C 33.78125 23.335938 33.640625 23.546875 33.289062 23.785156 C 31.011719 25.164062 27.851562 27.207031 25.136719 28.90625 C 23.777344 29.757812 22.53125 30.523438 21.5625 31.070312 C 21.078125 31.347656 20.664062 31.570312 20.347656 31.71875 C 20.027344 31.871094 19.78125 31.945312 19.722656 31.945312 C 18.699219 31.945312 17.878906 31.125 17.878906 30.101562 L 17.878906 17.164062 C 17.878906 16.140625 18.695312 15.320312 19.71875 15.320312 Z M 19.71875 15.320312 "/>
<path style=" stroke:none;fill-rule:nonzero;fill:rgb(0%,0%,0%);fill-opacity:0.235294;" d="M 23.816406 8.4375 C 15.570312 8.4375 8.929688 15.074219 8.929688 23.320312 C 8.929688 23.441406 8.933594 23.558594 8.933594 23.679688 C 9.140625 15.613281 15.699219 9.179688 23.816406 9.179688 C 31.929688 9.179688 38.492188 15.613281 38.695312 23.679688 C 38.695312 23.558594 38.699219 23.441406 38.699219 23.320312 C 38.699219 15.074219 32.0625 8.4375 23.816406 8.4375 Z M 23.816406 8.4375 "/>
<path style=" stroke:none;fill-rule:nonzero;fill:rgb(100%,100%,100%);fill-opacity:0.392157;" d="M 8.9375 23.695312 C 8.933594 23.859375 8.929688 24.023438 8.929688 24.191406 C 8.929688 32.4375 15.570312 39.074219 23.816406 39.074219 C 32.0625 39.074219 38.699219 32.4375 38.699219 24.191406 C 38.699219 24.023438 38.695312 23.859375 38.691406 23.695312 C 38.429688 31.707031 31.894531 38.082031 23.816406 38.082031 C 15.734375 38.082031 9.199219 31.707031 8.9375 23.695312 Z M 8.9375 23.695312 "/>
<path style="fill:none;stroke-width:3;stroke-linecap:round;stroke-linejoin:miter;stroke:rgb(20%,20%,20%);stroke-opacity:1;stroke-miterlimit:4;" d="M 254.017409 -126.3418 C 341.675705 -126.3418 412.752251 -55.265254 412.752251 32.434704 C 412.752251 120.093 341.675705 191.169546 254.017409 191.169546 C 166.317451 191.169546 95.240905 120.093 95.240905 32.434704 C 95.240905 -55.265254 166.317451 -126.3418 254.017409 -126.3418 Z M 254.017409 -126.3418 " transform="matrix(0.093759,0,0,0.093759,0,20.158175)"/>
<path style=" stroke:none;fill-rule:nonzero;fill:rgb(0%,0%,0%);fill-opacity:0.235294;" d="M 33.65625 23.671875 C 33.574219 23.75 33.480469 23.824219 33.367188 23.902344 C 28.816406 26.652344 20.714844 32.085938 19.722656 32.085938 C 18.621094 32.085938 17.738281 31.199219 17.738281 30.101562 L 17.738281 31.132812 C 17.738281 32.230469 18.621094 33.117188 19.722656 33.117188 C 20.714844 33.121094 28.816406 27.683594 33.367188 24.933594 C 33.996094 24.515625 34.09375 24.09375 33.65625 23.671875 Z M 33.65625 23.671875 "/>
</g>
</svg>
